packages/core/src/svgs/mona.svg

<svg width="24" height="24" viewBox="0 0 24 24" fill="none" xmlns="http://www.w3.org/2000/svg">
<g clip-path="url(#clip0_31_14229)">
<path d="M0 0H24V24H0V0Z" fill="#D0B47A"/>
<path d="M17.1634 9.79533L16.1828 5.3999L14.2628 8.4239C12.7755 8.06583 11.2244 8.06583 9.73711 8.4239L7.81711 5.3999L6.83654 9.79533C5.78739 10.6388 5.14282 11.7428 5.14282 12.9496C5.14282 15.5965 8.21482 17.7428 12 17.7428C15.7851 17.7428 18.8571 15.5965 18.8571 12.9428C18.8571 11.7428 18.2125 10.6388 17.1634 9.79533ZM8.18739 11.5713H7.73482L8.84568 10.2856H9.66168L8.18739 11.5713ZM11.9588 14.9519L10.0663 11.6125L10.5325 11.345L10.9577 11.9999H13.0285L13.4743 11.3382L13.9337 11.6125L11.9657 14.9519H11.9588ZM15.8125 11.5713L14.3383 10.2856H15.1611L16.272 11.5713H15.8125ZM11.9725 13.8822L11.1497 12.4285H12.8661L11.9725 13.8822Z" fill="white"/>
</g>
<defs>
<clipPath id="clip0_31_14229">
<rect width="24" height="24" fill="white"/>
</clipPath>
</defs>
</svg>

<svg xmlns="http://www.w3.org/2000/svg" width="24" height="24" fill="none" viewBox="0 0 24 24"><g clip-path="url(#a)"><path fill="#D0B47A" d="M0 0h24v24H0z"/><path fill="#fff" d="m17.163 9.795-.98-4.395-1.92 3.024a9.7 9.7 0 0 0-4.526 0L7.817 5.4l-.98 4.395c-1.05.844-1.694 1.948-1.694 3.155 0 2.647 3.072 4.793 6.857 4.793s6.857-2.146 6.857-4.8c0-1.2-.645-2.304-1.694-3.148m-8.976 1.776h-.452l1.11-1.285h.817zm3.772 3.38-1.893-3.338.466-.268.426.655h2.07l.446-.662.46.275-1.968 3.339zm3.854-3.38-1.475-1.285h.823l1.111 1.285zm-3.84 2.311-.823-1.453h1.716z"/></g><defs><clipPath id="a"><path fill="#fff" d="M0 0h24v24H0z"/></clipPath></defs></svg>
